img/hello/mail.svg

<svg width="30" height="30" viewBox="0 0 30 30" fill="none" xmlns="http://www.w3.org/2000/svg">
<path fill-rule="evenodd" clip-rule="evenodd" d="M5.52267 8.98914L14.5589 15.5609L15 15.8817L15.4411 15.5609L24.4773 8.98914C24.8071 9.4709 25 10.0537 25 10.6816V18.318C25 19.9749 23.6569 21.318 22 21.318H8C6.34315 21.318 5 19.9749 5 18.318V10.6816C5 10.0537 5.1929 9.4709 5.52267 8.98914ZM6.68889 7.98255C7.08499 7.78978 7.52987 7.68164 8 7.68164H22C22.4701 7.68164 22.915 7.78978 23.3111 7.98255L15 14.027L6.68889 7.98255Z" fill="#25394E"/>
</svg>

<svg width="30" height="30" fill="none" xmlns="http://www.w3.org/2000/svg"><path fill-rule="evenodd" clip-rule="evenodd" d="M5.523 8.99l9.036 6.57.441.322.441-.321 9.036-6.572c.33.482.523 1.065.523 1.693v7.636a3 3 0 01-3 3H8a3 3 0 01-3-3v-7.636c0-.628.193-1.211.523-1.693zm1.166-1.007c.396-.193.84-.301 1.311-.301h14c.47 0 .915.108 1.311.3L15 14.028 6.689 7.983z" fill="#25394E"/></svg>
